X:1
T:Title
%%score { ( 1 2 ) | ( 3 4 ) }
L:1/8
M:4/4
K:Eb
V:1 treble nm="Grand Piano"
V:2 treble 
V:3 bass 
V:4 bass 
V:1
 z4 z2[Q:1/4=100] z G | B3 =A cBEB | A6 A2 | [Ad]3 [Ac] [GB][DF] [EG]>[FA] |[M:3/4] [EG]6 | %5
[M:1/4] [GB]2 |[M:4/4] [Ge]3 [Ge] dd c>c | [EGB]6 [CFA]2 | [EG]3 [FA] [EG]2 F2 |[M:3/4] E6 | %10
[M:1/4] G>A |[M:4/4] B6 z2 | c6 z2 | [GB]3 [Ge] [Ge][GB] [EB]>[EG] | [DF]6 z2 | B6 z2 | %16
[M:9/8] c6- c z z |[M:35/32] [Ge]3 [EG][DA][DA][EG]-(3:2:4[EG]3/2-[EG]/4F3/4-F/8 |[M:3/4] E6 |] %19
V:2
 z4 z2 E2 | x8 | x8 | x8 |[M:3/4] x6 |[M:1/4] x2 |[M:4/4] x8 | x8 | x8 |[M:3/4] x6 |[M:1/4] x2 | %11
[M:4/4] z2 E>E E2 e>d | z2 E>E E2 c2 | x8 | z2 B,>B, B,2 G>A | z2 G,>G, G,2 e>B | %16
[M:9/8] z2 E- E/E/ E2- E e2 |[M:35/32] x35/4 |[M:3/4] x6 |] %19
V:3
 z4 z2 G,B, | [E,G,E]3 [E,_G,E] [E,A,E][E,=G,E][E,G,][E,G,E] | [F,B,D]6 [F,B,D]2 | %3
 [B,,B,]3 [B,,B,] [B,,B,][B,,B,] [B,,B,]>[B,,B,] |[M:3/4] [E,B,]6 |[M:1/4] [E,E]2 | %6
[M:4/4] [E,B,]3 [E,B,][K:treble] [G,=B,F][G,B,F] [A,CE]>[A,DF] | E,6 A,,2 | %8
 [B,,B,]3 [B,,B,] [B,,B,]2 [B,,A,B,]2 |[M:3/4] [E,G,B,]6 |[M:1/4][K:treble] E>F | %11
[M:4/4] G6[K:bass][K:treble] z2 | A6 z2 | [E,E]3 [E,B,] [E,B,][E,E] [G,B,]>[E,B,] | %14
 [B,,B,]2 B,,>B,, B,,2 E>E | E6[K:treble] z2 |[M:9/8] A6- A[K:bass] z z | %17
[M:35/32] [B,,B,]3 [B,,B,][B,,F,][B,,F,][B,,B,]-(3:2:4[B,,B,]3/2-[B,,B,]/4[B,,A,B,]3/4-[B,,A,B,]/8 | %18
[M:3/4] [E,G,B,]6 |] %19
V:4
 z4 z2 E,2 | x8 | x8 | x8 |[M:3/4] x6 |[M:1/4] x2 |[M:4/4] x4[K:treble] x4 | x8 | x8 |[M:3/4] x6 | %10
[M:1/4][K:treble] x2 |[M:4/4] z2[K:bass] E,>E, E,2[K:treble] G>B | z2 A,>A, A,2 [A,EA]2 | x8 | x8 | %15
 z2 E,>E, E,2[K:treble] G>G |[M:9/8] z2 A,- A,/A,/ A,2- A,[K:bass] [A,,CA]2 |[M:35/32] x35/4 | %18
[M:3/4] x6 |] %19

